!!!SOCIAL_FUNCTION:	songs of social dances
!!!PDT:	1958
!!!OTL: No_23_Circle_Dance_Song_(a).krn
!!!REG: Northern California
!!!LANG: Non-Tone
!!!LING_GROUP: Penutian
**kern
*staff1
=1-
*clefF4
*k[f#c#g#d#]
*M2/4
4r
8.r
16E\
=2
4E\
16F#\LK
8.F#\J
=3
4G#\
8F#\
16r
16E\
=4
4E\
16F#\LK
8.F#\J
=5
4F#\
8F#\L
8E\J
=6!|:
8G#\L
8G#\J
8G#\L
8E\J
=7
8F#\L
8F#\J
8E\
16r
16C#/
=8
4C#/
8F#\L
8F#\J
=9
4F#\
16F#\LL
16E\JJ
16r
16C#/
=10
4C#/
8F#\L
8F#\J
=11
4F#\
8F#\L
8E\J
=12:|!
8G#\L
8G#\J
8G#\L
8E\J
=13
8F#\L
8F#\J
8E\
8r
==
*-
